X: 1865
T: See Me Dance The Polka
C:George Grossmith (1847-1912)
B: australian traditional tunes wiki
M:2/4
L:1/8
Q: 1/4=100
K:C
V:1 
E>F|"C"GG G>^F|"G7"GB,2, G|"F"AA "G7"B/A/B|"C"G3A/B/|"F"cc c>B|"Dm"cD- D>F|"F"AA "D7"B/A/B|"C"G3E/F/|
"C"GG G>^F|"G7"GB,2 G|"F"AA "G7"B/A/B|"C"G3A/B/|"F" cc c>B|"Dm"cD- D>E|"F"FF "D7"E/D/E|"C"C3z||
|:"Verse""C"E4|C3D|EE F>E|"G7"EDD2|D4|B,3 C|DD E>D|"C"ECC2:|
% abcbook-tune_id 6342d53a49b0b9179deafe16


% abcbook-boost 0
% abcbook-tablature 
% abcbook-transpose 
% abcbook-lastupdated 1665324388978
% abcbook-soundfonts 
% abcbook-repeats 1
% NFF Book 2017

